src/pos-icons/water-off.svg

<svg height="24" viewBox="0 0 24 24" width="24" xmlns="http://www.w3.org/2000/svg"><path d="m17.12 17.12-4.62-4.62-7.23-7.23-1.27 1.28 3.32 3.32c-.77 1.45-1.32 2.92-1.32 4.13a6 6 0 0 0 6 6c1.5 0 2.9-.57 3.96-1.5l2.63 2.63 1.27-1.27zm.88-3.12c0-4-6-10.8-6-10.8s-1.33 1.51-2.73 3.52l8.59 8.59c.09-.42.14-.86.14-1.31z"/></svg>

<?xml version="1.0" encoding="UTF-8"?><!DOCTYPE svg PUBLIC "-//W3C//DTD SVG 1.1//EN" "http://www.w3.org/Graphics/SVG/1.1/DTD/svg11.dtd"><svg xmlns="http://www.w3.org/2000/svg" xmlns:xlink="http://www.w3.org/1999/xlink" version="1.1" id="mdi-water-off" width="24" height="24" viewBox="0 0 24 24"><path d="M17.12,17.12L12.5,12.5L5.27,5.27L4,6.55L7.32,9.87C6.55,11.32 6,12.79 6,14A6,6 0 0,0 12,20C13.5,20 14.9,19.43 15.96,18.5L18.59,21.13L19.86,19.86L17.12,17.12M18,14C18,10 12,3.2 12,3.2C12,3.2 10.67,4.71 9.27,6.72L17.86,15.31C17.95,14.89 18,14.45 18,14Z" /></svg>
